X:1
T:Sovereign Lord
T:Sovereign Lord
T:Scott Werdebaugh
T:Scott Werdebaugh, 2001
T:© 2008 Scott Werdebaugh. Reproduce or publish freely for Christian worship or devotions. Courtesy of the Cyber Hymnal™
T:© 2008 Scott Werdebaugh. Reproduce or publish freely for Christian worship or devotions. Courtesy of the Cyber Hymnal™
T:© 2008 Scott Werdebaugh. Reproduce or publish freely for Christian worship or devotions. Courtesy of the Cyber Hymnal™
C:Scott Werdebaugh
Z:© 2008 Scott Werdebaugh. Reproduce or publish freely for Christian worship or devotions.
Z:Courtesy of the Cyber Hymnal™
%%score ( 1 2 ) ( 3 4 ) ( 5 6 ) ( 7 8 )
L:1/8
Q:1/4=110
M:4/4
K:C
V:1 treble 
V:2 treble 
V:3 bass 
V:4 bass 
V:5 treble 
V:6 treble 
V:7 bass 
V:8 bass 
V:1
 [CE]-<[CE] [CE]2 [CE]2 [EG]2 | [CF]2 [CF]2 [CF]2 [CE]2 | [B,D]2 [B,D]2 [B,D]3 [B,E] | %3
w: 1.~Sov’- * reign Lord, it’s|You a- lone I|seek to know and|
w: 2.~Oft- * en- times I|do not un- der-|stand why things go|
w: 3.~Yet~there * You are, You|nev- er leave me|when I’ve gone a-|
w: 4.~I * can trust Your|sov’- reign- ty what-|ev- er comes my|
w: 5.~Sov’- * reign Lord, I|thank You for the|warmth of Your em-|
 [CE]6 [EG]2 | [FA]2 [FA]2 [FA]2 [FA]2 | [FA]3 [EG] [EG]2 [EG]2 | [D^F]3 [DF] [EG]2 [FA]2 | %7
w: love, For|there is no one|else I know who|cares for me like|
w: wrong; Why|peo- ple suf- fer|pain and loss, why|sor- row seems their|
w: stray; You’re|al- ways read- y|to for- give, to|com- fort and re-|
w: way, For|true to Your great|pro- mis- es, You’ve|al- ways faith- ful|
w: brace, For|sav- ing me, re-|deem- ing me, and|draw- ing near to|
 [GB]6 G2 | [Ec]3 [Ec] [GB]2 [FA]2 | [FA]2 [EG]2 [EG]2 [CE]2 | [FA]3 [EG] [CF]2 [CE]2 | %11
w: You. No|mat- ter what I|face in life, I’m|al- ways mind- ful|
w: fate. I,|too, have known such|deep de- spair, and|a- gon- y so|
w: store. Through|tears and fears that|I will face, I|on- ly have to|
w: been. Your|sov’- reign- ty led|You to die to|bring me peace that|
w: me. Help|me to love with|Your great love, to|em- u- late Your|
 [B,D]6 [B,D]2 | [B,D]2 [B,D]2 [B,E]2 [B,F]2 | [CF]3 [CE] [CE]2 C2 | [CE]2 [CE]2 [B,E]3 [B,D] | %15
w: of The|way You’re al- ways|there for me, so|ten- der and so|
w: long, And|depths of shame, re-|morse, re- gret; my|fail- ures are so|
w: pray, And|You will hear and|an- swer me; may|I but lis- ten|
w: day; So|faith- ful- ly I’ll|bear my cross each|day for You till|
w: grace To|oth- ers all a-|round me so they,|too, might be set|
 C8"^Play 5 times" :| %16
w: true.|
w: great.|
w: more.|
w: Heav’n.|
w: free.|
V:2
 x8 | x8 | x8 | x8 | x8 | x8 | x8 | x6 G2 | x8 | x8 | x8 | x8 | x8 | x6 C2 | x8 | x8 :| %16
V:3
 [C,G,]-<[C,G,] [C,G,]2 [C,G,]2 [E,C]2 | [F,A,]2 [F,A,]2 [F,A,]2 [C,G,]2 | %2
 [G,,G,]2 [G,,G,]2 [G,,F,]3 [G,,G,] | [C,G,]6 [C,C]2 | [F,,F,]2 [G,,F,]2 [A,,F,]2 [B,,F,]2 | %5
 [C,A,]3 [C,G,] [E,C]2 [C,C]2 | [D,A,]3 [^F,A,] [G,B,]2 [F,C]2 | D6 [D,B,]2 | %8
 [C,G,]3 [C,G,] [D,G,]2 [F,C]2 | [F,C]2 [C,C]2 [C,G,]2 [E,G,]2 | [C,F,]3 [C,G,] [F,A,]2 [C,G,]2 | %11
 [G,,G,]6 [G,,G,]2 | [G,,F,]2 [G,,F,]2 [G,,E,]2 [D,G,]2 | [F,A,]3 G, [C,G,]2 [E,G,]2 | %14
 [E,G,]2 [C,G,]2 [G,,G,]3 [G,,F,] | [C,,C,E,G,]8"^Play 5 times" :| %16
V:4
 x8 | x8 | x8 | x8 | x8 | x8 | x8 | (G,4 F,2) x2 | x8 | x8 | x8 | x8 | x8 | x3 G, x4 | x8 | x8 :| %16
V:5
 [CE]-<[CE] [CE]2 [CE]2 [EG]2 | [CF]2 [CF]2 [CF]2 [CE]2 | [B,D]2 [B,D]2 [B,D]3 [B,E] | %3
 [CE]6 [EG]2 | [FA]2 [FA]2 [FA]2 [FA]2 | [FA]3 [EG] [EG]2 [EG]2 | [D^F]3 [DF] [EG]2 [FA]2 | %7
 [GB]6 G2 | [Ec]3 [Ec] [GB]2 [FA]2 | [FA]2 [EG]2 [EG]2 [CE]2 | [FA]3 [EG] [CF]2 [CE]2 | %11
 [B,D]6 [B,D]2 | [B,D]2 [B,D]2 [B,E]2 [B,F]2 | [CF]3 [CE] [CE]2 C2 | [CE]2 [CE]2 [B,E]3 [B,D] | %15
 C8"^Play 5 times" :| %16
V:6
 x8 | x8 | x8 | x8 | x8 | x8 | x8 | x6 G2 | x8 | x8 | x8 | x8 | x8 | x6 C2 | x8 | x8 :| %16
V:7
 [C,,C,G,]4 [C,,C,G,]4 | [F,,F,A,]4 [F,,F,A,]2 [C,G,]2 | [G,,G,]4 [G,,F,]3 [G,,G,] | %3
 [C,,C,G,]6 [C,C]2 | [F,,F,C]2 [G,,F,C]2 [A,,F,C]2 [B,,F,C]2 | [C,A,C]3 [C,G,] [E,C]2 [C,C]2 | %6
 [D,A,]3 [D,^F,A,] [E,G,B,]2 [F,A,C]2 | [B,D]6 [D,G,B,]2 | [C,E,G,]4 [G,,D,G,]2 [F,,F,C]2 | %9
 [F,,F,C]2 [C,E,C]2 [C,E,G,]4 | [F,,C,F,]3 [E,,E,B,] [F,,F,A,]2 [C,E,G,]2 | [G,,D,G,]6 [G,,D,G,]2 | %12
 [G,,D,F,]4 [G,,E,G,]2 [G,,D,G,]2 | [F,,F,A,]3 [C,E,G,] [C,E,G,]4 | %14
 [C,E,G,]4 [G,,E,G,]3 [G,,D,F,] | [C,,C,E,G,]8"^Play 5 times" :| %16
V:8
 x8 | x8 | x8 | x8 | x8 | x8 | x8 | (G,4 F,2) x2 | x8 | x8 | x8 | x8 | x8 | x8 | x8 | x8 :| %16

